X:11
T:Girls of Banbridge (The)
R:Jig
C:Irish, traditional
O:Cape Breton setting. 3rd turn composed by Johnny Wilmot.
D:Another Side of Cape Breton, Breton Books and Music
B:ONMI
N:Contacts ...
N:..... Breton Books  - http://www.capebretonsmagazine.com
N:..... Cranford Publications <http://www.cranfordpub.com>
Z:This abc transcription is for personal use only,
Z:provided this notice remains attached.
Z:Paul Stewart Cranford <psc@cranfordpub.com>
L:1/8
Q:288
M:6/8
K:D
P:ABCB,
P:A
"ABCB"E|DFA dcB|BAG FED|FAD FAD|CEA, CEA,|!
DFA dcB|BAG FED|faf gec|edd d2:|!
P:B
|:B|AFA def|gfg efg|f2g fed|ceee2B|!
AFA def|agf efg|(f/g/a)f gec|edd d2:|!
P:C
"3rd turn by Johnny Wilmot"f/g/|a3d'2f|g3gfg|a2b agf|efe ecA|!
a3d'2f|g3gfg|bag fge|d3d2:|!

